X:19
T:Princess Royal
C:from Edward Winder's ms2
M:C
L:1/8
K:Bb
GA|B2AB G2dc|B2AB G2d2|e2dc B2c2|d2cd B2B2|
B2gB A2fA|GBAG F2dc|BABG D2F2|F2G4:|
|:d2|gfga gfga|b2B2B2ga|bagf edcB|A2F2F2GA|
B2B2c2c2|d2d2g4|f2d2e4|d2B2c4|
B3A GBAG|F2EF D2dc|BABG D2F2|F2G4:|
%%vskip 1cm
